aloe_vera/img/advantages_9.svg

<svg width="65" height="65" viewBox="0 0 65 65" fill="none" xmlns="http://www.w3.org/2000/svg">
<g clip-path="url(#clip0)">
<path d="M47.069 0H17.9311C16.6932 0 15.6897 1.0035 15.6897 2.24138V8.96552C15.6897 10.2034 16.6932 11.2069 17.9311 11.2069H47.069C48.3069 11.2069 49.3104 10.2034 49.3104 8.96552V2.24138C49.3104 1.0035 48.3069 0 47.069 0Z" fill="#BDC3C7"/>
<path d="M21.2931 12.3275C20.6742 12.3275 20.1724 11.8258 20.1724 11.2068V6.72408C20.1724 6.10514 20.6742 5.60339 21.2931 5.60339C21.9121 5.60339 22.4138 6.10514 22.4138 6.72408V11.2068C22.4138 11.8258 21.9121 12.3275 21.2931 12.3275Z" fill="#7F8C8D"/>
<path d="M25.7758 12.3275C25.1569 12.3275 24.6552 11.8258 24.6552 11.2068V6.72408C24.6552 6.10514 25.1569 5.60339 25.7758 5.60339C26.3948 5.60339 26.8965 6.10514 26.8965 6.72408V11.2068C26.8965 11.8258 26.3948 12.3275 25.7758 12.3275Z" fill="#7F8C8D"/>
<path d="M30.2586 12.3275C29.6397 12.3275 29.1379 11.8258 29.1379 11.2068V6.72408C29.1379 6.10514 29.6397 5.60339 30.2586 5.60339C30.8776 5.60339 31.3793 6.10514 31.3793 6.72408V11.2068C31.3793 11.8258 30.8776 12.3275 30.2586 12.3275Z" fill="#7F8C8D"/>
<path d="M34.7414 12.3275C34.1225 12.3275 33.6207 11.8258 33.6207 11.2068V6.72408C33.6207 6.10514 34.1225 5.60339 34.7414 5.60339C35.3604 5.60339 35.8621 6.10514 35.8621 6.72408V11.2068C35.8621 11.8258 35.3604 12.3275 34.7414 12.3275Z" fill="#7F8C8D"/>
<path d="M39.2241 12.3275C38.6052 12.3275 38.1035 11.8258 38.1035 11.2068V6.72408C38.1035 6.10514 38.6052 5.60339 39.2241 5.60339C39.8431 5.60339 40.3448 6.10514 40.3448 6.72408V11.2068C40.3448 11.8258 39.8431 12.3275 39.2241 12.3275Z" fill="#7F8C8D"/>
<path d="M43.7069 12.3275C43.088 12.3275 42.5862 11.8258 42.5862 11.2068V6.72408C42.5862 6.10514 43.088 5.60339 43.7069 5.60339C44.3259 5.60339 44.8276 6.10514 44.8276 6.72408V11.2068C44.8276 11.8258 44.3259 12.3275 43.7069 12.3275Z" fill="#7F8C8D"/>
<path d="M64.2043 38.7535C63.6971 38.1286 62.9875 37.7005 62.1983 37.5431C60.5702 37.2152 59.3985 35.7858 59.3965 34.125V32.5C60.6329 32.4963 61.6342 31.495 61.6379 30.2586V25.7759C61.6342 24.5395 60.6329 23.5382 59.3965 23.5345H52.6724V21.2931C52.6724 19.4363 51.1672 17.931 49.3103 17.931C47.4535 17.931 45.9483 16.4258 45.9483 14.569V11.2069H19.0517V14.569C19.0517 16.4258 17.5465 17.931 15.6897 17.931C13.8328 17.931 12.3276 19.4363 12.3276 21.2931V36.9828H3.36207C2.74313 36.9828 2.24138 37.4845 2.24138 38.1035V42.5862C2.24138 43.2052 2.74313 43.7069 3.36207 43.7069V45.2983C3.36331 46.347 2.69623 47.2801 1.70345 47.6181C0.722079 47.9074 0.0359155 48.7922 0 49.8147V62.7586C0.00369245 63.995 1.00503 64.9963 2.24138 65H62.7586C63.995 64.9963 64.9963 63.995 65 62.7586V40.9612C65.0019 40.1548 64.7203 39.3733 64.2043 38.7535Z" fill="#26B99A"/>
<path d="M22.0709 20.2464C21.6512 20.2459 21.2669 20.0109 21.0752 19.6374C20.8835 19.264 20.9166 18.8148 21.1609 18.4735C21.7848 17.601 22.191 16.5919 22.3455 15.5305C22.4246 14.9787 22.8974 14.5689 23.455 14.569H34.7414C35.3604 14.569 35.8621 15.0707 35.8621 15.6897C35.8621 16.3086 35.3604 16.8103 34.7414 16.8103H24.3706C24.0939 17.8762 23.6236 18.8822 22.9831 19.7779C22.7725 20.0722 22.4328 20.2467 22.0709 20.2464Z" fill="white"/>
<path d="M41.4655 16.8103H39.2241C38.6052 16.8103 38.1035 16.3086 38.1035 15.6897C38.1035 15.0707 38.6052 14.569 39.2241 14.569H41.4655C42.0845 14.569 42.5862 15.0707 42.5862 15.6897C42.5862 16.3086 42.0845 16.8103 41.4655 16.8103Z" fill="white"/>
<path d="M59.3965 23.5345H43.7069C42.469 23.5345 41.4655 24.538 41.4655 25.7759V30.2587C41.4655 31.4966 42.469 32.5001 43.7069 32.5001H59.3965C60.6344 32.5001 61.6379 31.4966 61.6379 30.2587V25.7759C61.6379 24.538 60.6344 23.5345 59.3965 23.5345Z" fill="#BDC3C7"/>
<path d="M47.069 45.9483V57.1552C47.0727 58.3915 48.074 59.3929 49.3103 59.3966H65V62.7586C64.9963 63.995 63.995 64.9963 62.7586 65H40.3448C39.1085 64.9963 38.1071 63.995 38.1035 62.7586V40.9612C38.1054 39.3005 39.2771 37.871 40.9052 37.5431C42.5302 37.2101 43.6993 35.7837 43.7069 34.125V32.5H59.3966V34.125C59.3985 35.7858 60.5702 37.2152 62.1983 37.5431C63.8233 37.8761 64.9924 39.3025 65 40.9612V43.7069H49.3103C48.074 43.7106 47.0727 44.7119 47.069 45.9483Z" fill="#F0C419"/>
<path d="M17.931 49.9604V62.7587C17.9273 63.995 16.926 64.9963 15.6897 65H2.24138C1.00503 64.9963 0.00369245 63.995 0 62.7587V60.5173H7.84483C9.08117 60.5136 10.0825 59.5122 10.0862 58.2759V53.7931C10.0825 52.5568 9.08117 51.5554 7.84483 51.5517H0V49.8147C0.0359155 48.7922 0.722079 47.9074 1.70345 47.6181C2.69623 47.2801 3.36331 46.3471 3.36207 45.2983V43.7069H14.569V45.444C14.6049 46.4665 15.291 47.3513 16.2724 47.6405C17.2652 47.9786 17.9323 48.9116 17.931 49.9604Z" fill="#955BA5"/>
<path d="M31.3793 30.2586V52.6724C31.3756 53.9087 30.3743 54.9101 29.1379 54.9137H17.931V49.9603C17.9323 48.9115 17.2652 47.9785 16.2724 47.6405C15.291 47.3512 14.6049 46.4664 14.569 45.4439V43.7069C15.1879 43.7069 15.6896 43.2051 15.6896 42.5862V38.1034C15.6896 37.4845 15.1879 36.9827 14.569 36.9827H12.3276V28.0172H29.1379C30.3743 28.0209 31.3756 29.0222 31.3793 30.2586Z" fill="#ECF0F1"/>
<path d="M14.569 36.9828H3.36208C2.74314 36.9828 2.24139 37.4845 2.24139 38.1035V42.5862C2.24139 43.2052 2.74314 43.7069 3.36208 43.7069H14.569C15.1879 43.7069 15.6897 43.2052 15.6897 42.5862V38.1035C15.6897 37.4845 15.1879 36.9828 14.569 36.9828Z" fill="#BDC3C7"/>
<path d="M65 43.7069V59.3966H49.3103C48.074 59.3929 47.0727 58.3915 47.069 57.1552V45.9483C47.0727 44.7119 48.074 43.7106 49.3103 43.7069H65Z" fill="#ECF0F1"/>
<path d="M10.0862 53.7931V58.2759C10.0825 59.5122 9.08117 60.5136 7.84483 60.5173H0V51.5518H7.84483C9.08117 51.5555 10.0825 52.5568 10.0862 53.7931Z" fill="#ECF0F1"/>
</g>
<defs>
<clipPath id="clip0">
<rect width="65" height="65" fill="white"/>
</clipPath>
</defs>
</svg>

<svg width="65" height="65" fill="none" xmlns="http://www.w3.org/2000/svg"><g clip-path="url(#clip0)"><path d="M47.069 0H17.931a2.241 2.241 0 00-2.241 2.241v6.725a2.241 2.241 0 002.241 2.24H47.07a2.241 2.241 0 002.241-2.24V2.24A2.241 2.241 0 0047.07 0z" fill="#BDC3C7"/><path d="M21.293 12.328a1.12 1.12 0 01-1.12-1.121V6.724a1.12 1.12 0 012.24 0v4.483a1.12 1.12 0 01-1.12 1.12zm4.483 0a1.12 1.12 0 01-1.12-1.121V6.724a1.12 1.12 0 112.24 0v4.483a1.12 1.12 0 01-1.12 1.12zm4.483 0a1.12 1.12 0 01-1.121-1.121V6.724a1.12 1.12 0 012.241 0v4.483a1.12 1.12 0 01-1.12 1.12zm4.482 0a1.12 1.12 0 01-1.12-1.121V6.724a1.12 1.12 0 012.241 0v4.483a1.12 1.12 0 01-1.12 1.12zm4.483 0a1.12 1.12 0 01-1.12-1.121V6.724a1.12 1.12 0 112.24 0v4.483a1.12 1.12 0 01-1.12 1.12zm4.483 0a1.12 1.12 0 01-1.12-1.121V6.724a1.12 1.12 0 012.24 0v4.483a1.12 1.12 0 01-1.12 1.12z" fill="#7F8C8D"/><path d="M64.204 38.754a3.454 3.454 0 00-2.006-1.21 3.491 3.491 0 01-2.801-3.419V32.5a2.248 2.248 0 002.24-2.241v-4.483a2.248 2.248 0 00-2.24-2.241h-6.725v-2.242a3.362 3.362 0 00-3.362-3.362 3.362 3.362 0 01-3.362-3.362v-3.362H19.052v3.362a3.362 3.362 0 01-3.362 3.362 3.362 3.362 0 00-3.362 3.362v15.69H3.362a1.12 1.12 0 00-1.12 1.12v4.483c0 .62.501 1.12 1.12 1.12v1.592a2.448 2.448 0 01-1.659 2.32A2.377 2.377 0 000 49.815v12.944A2.248 2.248 0 002.241 65H62.76A2.248 2.248 0 0065 62.759V40.96a3.438 3.438 0 00-.796-2.207z" fill="#26B99A"/><path d="M22.07 20.246a1.12 1.12 0 01-.91-1.772 6.725 6.725 0 001.186-2.944 1.12 1.12 0 011.109-.961h11.286a1.12 1.12 0 110 2.241h-10.37a8.982 8.982 0 01-1.388 2.968 1.12 1.12 0 01-.912.468zm19.395-3.436h-2.24a1.12 1.12 0 110-2.241h2.24a1.12 1.12 0 110 2.241z" fill="#fff"/><path d="M59.397 23.535h-15.69a2.241 2.241 0 00-2.242 2.24v4.484a2.241 2.241 0 002.242 2.241h15.69a2.241 2.241 0 002.24-2.241v-4.483a2.241 2.241 0 00-2.24-2.241z" fill="#BDC3C7"/><path d="M47.069 45.948v11.207a2.248 2.248 0 002.241 2.242H65v3.362A2.248 2.248 0 0162.759 65H40.345a2.248 2.248 0 01-2.242-2.241V40.96a3.49 3.49 0 012.802-3.418 3.506 3.506 0 002.802-3.418V32.5h15.69v1.625a3.49 3.49 0 002.801 3.418A3.506 3.506 0 0165 40.961v2.746H49.31a2.248 2.248 0 00-2.241 2.241z" fill="#F0C419"/><path d="M17.931 49.96v12.8A2.248 2.248 0 0115.69 65H2.24A2.248 2.248 0 010 62.759v-2.242h7.845a2.248 2.248 0 002.241-2.241v-4.483a2.248 2.248 0 00-2.241-2.241H0v-1.737a2.377 2.377 0 011.703-2.197 2.447 2.447 0 001.66-2.32v-1.591h11.206v1.737a2.377 2.377 0 001.703 2.197 2.448 2.448 0 011.659 2.32z" fill="#955BA5"/><path d="M31.38 30.259v22.413a2.248 2.248 0 01-2.242 2.242H17.93V49.96a2.447 2.447 0 00-1.659-2.32 2.377 2.377 0 01-1.703-2.196v-1.737a1.12 1.12 0 001.12-1.12v-4.484a1.12 1.12 0 00-1.12-1.12h-2.241v-8.966h16.81a2.248 2.248 0 012.241 2.242z" fill="#ECF0F1"/><path d="M14.569 36.983H3.362a1.12 1.12 0 00-1.12 1.12v4.483c0 .62.501 1.12 1.12 1.12H14.57a1.12 1.12 0 001.12-1.12v-4.483a1.12 1.12 0 00-1.12-1.12z" fill="#BDC3C7"/><path d="M65 43.707v15.69H49.31a2.248 2.248 0 01-2.241-2.242V45.948a2.248 2.248 0 012.241-2.241H65zM10.086 53.793v4.483a2.248 2.248 0 01-2.241 2.241H0v-8.965h7.845a2.248 2.248 0 012.241 2.241z" fill="#ECF0F1"/></g><defs><clipPath id="clip0"><path fill="#fff" d="M0 0h65v65H0z"/></clipPath></defs></svg>
